picto/socket.svg

<svg class="color-immutable" width="24" height="24" viewBox="0 0 24 24" fill="none" xmlns="http://www.w3.org/2000/svg"><g clip-path="url(#a)"><path d="M0 22.5v-21C0 .675.675 0 1.5 0h21c.825 0 1.5.675 1.5 1.5v21c0 .825-.675 1.5-1.5 1.5h-21C.675 24 0 23.325 0 22.5Z" fill="#2D327D"/><path d="M14.475 15.094h-4.163a2.252 2.252 0 0 1-2.25-2.25 2.252 2.252 0 0 1 2.25-2.25h1.126c.62 0 1.125-.505 1.125-1.125s-.505-1.125-1.125-1.125H3V7.219h8.439a2.252 2.252 0 0 1 2.25 2.25 2.252 2.252 0 0 1-2.25 2.25h-1.126c-.62 0-1.125.505-1.125 1.125s.505 1.125 1.125 1.125h4.163v1.125h-.001ZM17.625 16.781H16.5a1.688 1.688 0 0 1-1.688-1.688v-1.125c0-.932.756-1.688 1.688-1.688h1.125c.311 0 .562.252.562.562v3.375a.562.562 0 0 1-.562.564ZM20.437 13.125h-1.912v.562h1.912a.281.281 0 0 0 0-.562ZM20.438 15.375h-1.913v.562h1.913a.281.281 0 0 0 0-.562Z" fill="#fff"/></g><defs><clipPath id="a"><path fill="#fff" d="M0 0h24v24H0z"/></clipPath></defs></svg>

<svg class="color-immutable" width="24" height="24" viewBox="0 0 24 24" fill="none" xmlns="http://www.w3.org/2000/svg"><path d="M0 22.5V1.5C0 0.675 0.675 0 1.5 0H22.5C23.325 0 24 0.675 24 1.5V22.5C24 23.325 23.325 24 22.5 24H1.5C0.675 24 0 23.325 0 22.5Z" fill="#2D327D"/><path d="M14.475 15.094H10.312C9.071 15.094 8.062 14.085 8.062 12.844C8.062 11.603 9.071 10.594 10.312 10.594H11.438C12.058 10.594 12.563 10.089 12.563 9.46899C12.563 8.84899 12.058 8.34399 11.438 8.34399H3V7.21899H11.439C12.68 7.21899 13.689 8.22799 13.689 9.46899C13.689 10.71 12.68 11.719 11.439 11.719H10.313C9.693 11.719 9.188 12.224 9.188 12.844C9.188 13.464 9.693 13.969 10.313 13.969H14.476V15.094H14.475Z" fill="white"/><path d="M17.625 16.781H16.5C15.568 16.781 14.812 16.025 14.812 15.093V13.968C14.812 13.036 15.568 12.28 16.5 12.28H17.625C17.936 12.28 18.187 12.532 18.187 12.842V16.217C18.188 16.529 17.936 16.781 17.625 16.781Z" fill="white"/><path d="M20.437 13.125H18.525V13.687H20.437C20.592 13.687 20.718 13.561 20.718 13.406C20.718 13.251 20.593 13.125 20.437 13.125Z" fill="white"/><path d="M20.438 15.375H18.525V15.937H20.438C20.593 15.937 20.719 15.811 20.719 15.656C20.719 15.501 20.593 15.375 20.438 15.375Z" fill="white"/></svg>
